svg/fluentui-system-icons/ic_fluent_document_table_16_filled.svg

<svg width="16" height="16" viewBox="0 0 16 16" fill="none" xmlns="http://www.w3.org/2000/svg">
<path d="M6 9.25C6 9.11193 6.11193 9 6.25 9H7V10H6V9.25ZM6 11H7V12H6.25C6.11193 12 6 11.8881 6 11.75V11ZM10 11.75V11H8V12H9.75C9.88807 12 10 11.8881 10 11.75ZM8 9V10H10V9.25C10 9.11193 9.88807 9 9.75 9H8ZM8 4.5V1H4.5C3.67157 1 3 1.67157 3 2.5V13.5C3 14.3284 3.67157 15 4.5 15H11.5C12.3284 15 13 14.3284 13 13.5V6H9.5C8.67157 6 8 5.32843 8 4.5ZM5 9.25C5 8.55964 5.55964 8 6.25 8H9.75C10.4404 8 11 8.55964 11 9.25V11.75C11 12.4404 10.4404 13 9.75 13H6.25C5.55964 13 5 12.4404 5 11.75V9.25ZM9 4.5V1.25L12.75 5H9.5C9.22386 5 9 4.77614 9 4.5Z" fill="#212121"/>
</svg>

<svg xmlns="http://www.w3.org/2000/svg" width="16" height="16"><path d="M6 9.25A.25.25 0 0 1 6.25 9H7v1H6v-.75ZM6 11h1v1h-.75a.25.25 0 0 1-.25-.25V11Zm4 .75V11H8v1h1.75a.25.25 0 0 0 .25-.25ZM8 9v1h2v-.75A.25.25 0 0 0 9.75 9H8Zm0-4.5V1H4.5A1.5 1.5 0 0 0 3 2.5v11A1.5 1.5 0 0 0 4.5 15h7a1.5 1.5 0 0 0 1.5-1.5V6H9.5A1.5 1.5 0 0 1 8 4.5ZM5 9.25C5 8.56 5.56 8 6.25 8h3.5c.69 0 1.25.56 1.25 1.25v2.5c0 .69-.56 1.25-1.25 1.25h-3.5C5.56 13 5 12.44 5 11.75v-2.5ZM9 4.5V1.25L12.75 5H9.5a.5.5 0 0 1-.5-.5Z"/></svg>
